icons/svg/account-location.svg

﻿<?xml version="1.0" encoding="utf-8"?>
<!DOCTYPE svg PUBLIC "-//W3C//DTD SVG 1.1//EN" "http://www.w3.org/Graphics/SVG/1.1/DTD/svg11.dtd">
<svg xmlns="http://www.w3.org/2000/svg" xmlns:xlink="http://www.w3.org/1999/xlink" version="1.1" baseProfile="full" width="24" height="24" viewBox="0 0 24.00 24.00" enable-background="new 0 0 24.00 24.00" xml:space="preserve">
	<path fill="#000000" fill-opacity="1" stroke-width="0.2" stroke-linejoin="round" d="M 17.9993,15.9981L 5.9993,15.9981L 5.9993,15.0981C 5.9993,13.0971 9.99829,11.9981 11.9993,11.9981C 13.9993,11.9981 17.9993,13.0971 17.9993,15.0981M 11.9993,5.29807C 13.4903,5.29807 14.6993,6.50707 14.6993,7.99807C 14.6993,9.49007 13.4903,10.6981 11.9993,10.6981C 10.5083,10.6981 9.29929,9.49007 9.29929,7.99807C 9.29929,6.50707 10.5083,5.29807 11.9993,5.29807 Z M 18.9993,1.99807L 4.9993,1.99807C 3.89429,1.99807 2.9993,2.89307 2.9993,3.99807L 2.9993,17.9981C 2.9993,19.1031 3.89429,19.9981 4.9993,19.9981L 8.9993,19.9981L 11.9993,22.9981L 14.9993,19.9981L 18.9993,19.9981C 20.1023,19.9981 20.9993,19.1031 20.9993,17.9981L 20.9993,3.99807C 20.9993,2.89307 20.1023,1.99807 18.9993,1.99807 Z "/>
</svg>

<svg xmlns="http://www.w3.org/2000/svg" version="1.1" baseProfile="full" width="24" height="24" viewBox="0 0 24.00 24.00" xml:space="preserve"><path fill="#000" fill-opacity="1" stroke-width=".2" stroke-linejoin="round" d="M18 15.998H6v-.9c0-2 3.998-3.1 6-3.1 2 0 6 1.1 6 3.1m-6-9.8c1.49 0 2.7 1.21 2.7 2.7 0 1.492-1.21 2.7-2.7 2.7-1.492 0-2.7-1.208-2.7-2.7 0-1.49 1.208-2.7 2.7-2.7zm7-3.3H5c-1.106 0-2 .895-2 2v14c0 1.105.894 2 2 2h4l3 3 3-3h4c1.102 0 2-.895 2-2v-14c0-1.105-.898-2-2-2z"/></svg>
